icons/circle/48/turpial.svg

<svg xmlns="http://www.w3.org/2000/svg" viewBox="0 0 48 48">
 <defs>
  <linearGradient id="linearGradient3764" x1="1" x2="47" gradientUnits="userSpaceOnUse" gradientTransform="matrix(0,-1,1,0,-1.5e-6,47.999998)">
   <stop style="stop-color:#a4a4a4;stop-opacity:1"/>
   <stop offset="1" style="stop-color:#aeaeae;stop-opacity:1"/>
  </linearGradient>
 </defs>
 <g>
  <path d="m 36.31 5 c 5.859 4.062 9.688 10.831 9.688 18.5 c 0 12.426 -10.07 22.5 -22.5 22.5 c -7.669 0 -14.438 -3.828 -18.5 -9.688 c 1.037 1.822 2.306 3.499 3.781 4.969 c 4.085 3.712 9.514 5.969 15.469 5.969 c 12.703 0 23 -10.298 23 -23 c 0 -5.954 -2.256 -11.384 -5.969 -15.469 c -1.469 -1.475 -3.147 -2.744 -4.969 -3.781 z m 4.969 3.781 c 3.854 4.113 6.219 9.637 6.219 15.719 c 0 12.703 -10.297 23 -23 23 c -6.081 0 -11.606 -2.364 -15.719 -6.219 c 4.16 4.144 9.883 6.719 16.219 6.719 c 12.703 0 23 -10.298 23 -23 c 0 -6.335 -2.575 -12.06 -6.719 -16.219 z" style="opacity:0.05"/>
  <path d="m 41.28 8.781 c 3.712 4.085 5.969 9.514 5.969 15.469 c 0 12.703 -10.297 23 -23 23 c -5.954 0 -11.384 -2.256 -15.469 -5.969 c 4.113 3.854 9.637 6.219 15.719 6.219 c 12.703 0 23 -10.298 23 -23 c 0 -6.081 -2.364 -11.606 -6.219 -15.719 z" style="opacity:0.1"/>
  <path d="m 31.25 2.375 c 8.615 3.154 14.75 11.417 14.75 21.13 c 0 12.426 -10.07 22.5 -22.5 22.5 c -9.708 0 -17.971 -6.135 -21.12 -14.75 a 23 23 0 0 0 44.875 -7 a 23 23 0 0 0 -16 -21.875 z" style="opacity:0.2"/>
 </g>
 <g>
  <path d="m 29.514 1.67 c 0 0.001 0 0.001 0 0.002 l -11.51 0.123 c -8.884 2.393 -15.633 9.971 -16.812 19.291 l 1.16 10.689 l 0 0.002 c 2.157 6 6.737 10.847 12.562 13.355 c -0.006 -0.004 -0.012 -0.006 -0.018 -0.01 c 14.1 -0.76 29.765 -14.211 31.576 -26.02 c 0 0 0 -0.001 0 -0.002 c -1.857 -8.565 -8.482 -15.349 -16.959 -17.436 z" style="fill:url(#linearGradient3764);fill-opacity:1"/>
 </g>
 <g>
  <g>
   <g transform="translate(1,1)">
    <g style="opacity:0.1">
     <!-- color: #555555 -->
     <g>
      <path d="m 23.764 1.01 c -0.882 0.009 -1.75 0.07 -2.605 0.176 c -8.697 6.214 -15.442 14.347 -20.15 22.943 0.018 3.329 0.745 6.488 2.035 9.34 5.208 -12.143 14.923 -24.33 28.342 -31.25 -2.247 -0.761 -4.647 -1.186 -7.145 -1.211 m 15.385 6.119 c -4.968 13.648 -17.586 25.809 -32.412 32.584 0.669 0.715 1.38 1.389 2.135 2.01 12.03 -6.252 27.28 -18.14 33.3 -31.18 -0.895 -1.239 -1.909 -2.386 -3.03 -3.422" transform="translate(-1,-1)" style="fill:#000;opacity:1;fill-opacity:1;stroke:none;fill-rule:nonzero"/>
     </g>
    </g>
   </g>
  </g>
 </g>
 <g>
  <g>
   <!-- color: #555555 -->
   <g>
    <path d="m 46.47 19.11 c -7.82 13.219 -17.03 20.485 -31.576 26.02 c 2.792 1.205 5.869 1.877 9.104 1.877 c 12.699 0 23 -10.301 23 -23 c 0 -1.681 -0.185 -3.316 -0.527 -4.895 z" style="fill:#f8d328;fill-opacity:1;stroke:none;fill-rule:nonzero"/>
    <path d="m 24 1 c -2.075 0 -4.084 0.28 -5.996 0.795 c -6.995 5.457 -12.602 12.173 -16.812 19.291 c -0.121 0.955 -0.191 1.926 -0.191 2.914 c 0 2.73 0.478 5.348 1.352 7.777 c 5.16 -11.651 14.442 -23.25 27.16 -30.11 c -1.767 -0.435 -3.612 -0.672 -5.514 -0.672 z" style="fill:#f9f9f9;fill-opacity:1;stroke:none;fill-rule:nonzero"/>
    <path d="m 38.586 6.219 c -4.982 13.586 -17.539 25.686 -32.3 32.453 c 0.613 0.739 1.275 1.435 1.975 2.092 c 12.1 -6.27 27.502 -18.262 33.477 -31.402 c -0.948 -1.147 -2 -2.198 -3.154 -3.143 z" style="fill:#4a4a4a;fill-opacity:1;stroke:none;fill-rule:nonzero"/>
   </g>
  </g>
 </g>
 <g>
  <path d="m 40.03 7.531 c 3.712 4.084 5.969 9.514 5.969 15.469 0 12.703 -10.297 23 -23 23 c -5.954 0 -11.384 -2.256 -15.469 -5.969 4.178 4.291 10.01 6.969 16.469 6.969 c 12.703 0 23 -10.298 23 -23 0 -6.462 -2.677 -12.291 -6.969 -16.469 z" style="opacity:0.1"/>
 </g>
</svg>

<svg xmlns="http://www.w3.org/2000/svg" viewBox="0 0 48 48">
  <defs>
    <linearGradient id="a" x1="1" x2="47" gradientUnits="userSpaceOnUse" gradientTransform="rotate(-90 24 24)">
      <stop stop-color="#a4a4a4"/>
      <stop offset="1" stop-color="#aeaeae"/>
    </linearGradient>
  </defs>
  <path d="M36.31 5c5.859 4.062 9.688 10.831 9.688 18.5 0 12.426-10.07 22.5-22.5 22.5-7.669 0-14.438-3.828-18.5-9.688a23.24 23.24 0 0 0 3.781 4.969 22.923 22.923 0 0 0 15.469 5.969c12.703 0 23-10.298 23-23a22.92 22.92 0 0 0-5.969-15.469A23.216 23.216 0 0 0 36.31 5zm4.969 3.781A22.911 22.911 0 0 1 47.498 24.5c0 12.703-10.297 23-23 23a22.909 22.909 0 0 1-15.719-6.219C12.939 45.425 18.662 48 24.998 48c12.703 0 23-10.298 23-23 0-6.335-2.575-12.06-6.719-16.219z" opacity=".05"/>
  <path d="M41.28 8.781a22.923 22.923 0 0 1 5.969 15.469c0 12.703-10.297 23-23 23A22.92 22.92 0 0 1 8.78 41.281 22.911 22.911 0 0 0 24.499 47.5c12.703 0 23-10.298 23-23A22.909 22.909 0 0 0 41.28 8.781z" opacity=".1"/>
  <path d="M31.25 2.375C39.865 5.529 46 13.792 46 23.505c0 12.426-10.07 22.5-22.5 22.5-9.708 0-17.971-6.135-21.12-14.75a23 23 0 0 0 44.875-7 23 23 0 0 0-16-21.875z" opacity=".2"/>
  <path d="M29.514 1.67v.002l-11.51.123C9.12 4.188 2.371 11.766 1.192 21.086l1.16 10.689v.002a23.076 23.076 0 0 0 12.562 13.355l-.018-.01c14.1-.76 29.765-14.211 31.576-26.02V19.1C44.615 10.535 37.99 3.751 29.513 1.664z" fill="url(#a)"/>
  <path d="M23.764 1.01c-.882.009-1.75.07-2.605.176C12.462 7.4 5.717 15.533 1.009 24.129a22.903 22.903 0 0 0 2.035 9.34c5.208-12.143 14.923-24.33 28.342-31.25a22.946 22.946 0 0 0-7.145-1.211m15.385 6.119C34.658 20.775 22.04 32.936 7.214 39.711c.669.715 1.38 1.389 2.135 2.01 12.03-6.252 27.28-18.14 33.3-31.18a22.98 22.98 0 0 0-3.03-3.422" opacity=".1"/>
  <g>
    <path d="M46.47 19.11c-7.82 13.219-17.03 20.485-31.576 26.02a22.918 22.918 0 0 0 9.104 1.877c12.699 0 23-10.301 23-23 0-1.681-.185-3.316-.527-4.895z" fill="#f8d328"/>
    <path d="M24 1c-2.075 0-4.084.28-5.996.795C11.009 7.252 5.402 13.968 1.192 21.086A23.152 23.152 0 0 0 1.001 24c0 2.73.478 5.348 1.352 7.777 5.16-11.651 14.442-23.25 27.16-30.11a23.032 23.032 0 0 0-5.514-.672z" fill="#f9f9f9"/>
    <path d="M38.586 6.219c-4.982 13.586-17.539 25.686-32.3 32.453a23.1 23.1 0 0 0 1.975 2.092c12.1-6.27 27.502-18.262 33.477-31.402-.948-1.147-2-2.198-3.154-3.143z" fill="#4a4a4a"/>
  </g>
  <g>
    <path d="M40.03 7.531A22.922 22.922 0 0 1 45.999 23c0 12.703-10.297 23-23 23A22.92 22.92 0 0 1 7.53 40.031C11.708 44.322 17.54 47 23.999 47c12.703 0 23-10.298 23-23 0-6.462-2.677-12.291-6.969-16.469z" opacity=".1"/>
  </g>
</svg>
